X: 1
T:the Fox Hunter's Reel
R:Reel
O:Ireland
N:Fiddlers do it in A, says John W. Goes well, says an A clarinettist.
M:C
K:G
d2BG d2BG|d2BG AGEG|\
d2BG d2BG|AcBG AGEG::\
D3B BABG|DGBG AGEG|
D3B BABG|AcBG AGEG|\
D3B BABG|DGBG AGEG|\
DB~B2 DA~A2|AcBG AGEG|]
gedB G2Bd|gdBd eA~A2|\
gedB G2BG|ABcd eA~A2::\
dggf g4|dgg2 (3efg d^c|
dggf g3d|(3efg dB AGAB::\
G2BG dGBG|GBBG AGAB|\
G2BG dGBd|(3efg dB AGAB:|
